static/logos/expedia-wordmark-color.svg

<svg width="100" height="23" viewBox="0 0 100 23" fill="none" xmlns="http://www.w3.org/2000/svg">
<g clip-path="url(#clip0_1_2845)">
<path d="M21.2251 14.4125C23.1683 8.71972 20.1285 2.52985 14.4357 0.586681C8.74298 -1.35607 2.55308 1.68382 0.610326 7.37611C-1.33285 13.0689 1.70704 19.2587 7.39978 21.2019C13.0926 23.1447 19.2824 20.1048 21.2251 14.4125Z" fill="black"/>
<path d="M1.69557 16.6893C3.3906 15.8805 9.15957 13.0489 10.2965 12.3825C11.2302 11.8383 12.6208 11.0359 12.6208 11.0359L13.2106 12.238L14.1113 18.1624L14.7994 17.7652L15.2567 9.49031C16.6469 8.62142 17.8714 7.7758 19.1532 6.89124C19.6232 6.56689 20.1009 6.23703 20.5967 5.89912C20.4396 5.59552 20.2686 5.29953 20.0844 5.01286C19.5437 5.27328 19.0194 5.52183 18.5041 5.76658C17.0966 6.43436 15.7521 7.07205 14.3044 7.84101L6.90983 4.10034L6.22174 4.49753L10.9021 8.23948L11.6469 9.34934L11.6481 9.35142C11.6481 9.35142 10.258 10.1543 9.31964 10.6912C8.17422 11.3425 2.83632 14.9235 1.28906 15.9864C1.4161 16.226 1.5516 16.4602 1.69557 16.6893Z" fill="#FFC94C"/>
<path d="M97.7602 8.47037V7.27502H99.8672V18.1663H97.6991V16.9295C96.9262 17.8306 95.838 18.4255 94.2658 18.4255C91.1693 18.4255 89.1797 15.9577 89.1797 12.7272C89.1797 9.51884 91.1693 7.02856 94.2658 7.02856C95.6415 7.02856 96.9172 7.54773 97.7602 8.47037ZM97.6144 10.6079C96.9727 9.65815 95.8873 9.07377 94.6116 9.07377C92.6943 9.07377 91.3741 10.6968 91.3741 12.7272C91.3741 14.7577 92.6464 16.429 94.6116 16.429C95.9248 16.429 96.9866 15.6807 97.6144 14.7111V10.6079Z" fill="black"/>
<path d="M84.8125 4.47096C84.8125 3.63381 85.4979 2.95715 86.3444 2.95715C87.1639 2.95715 87.8583 3.6516 87.8583 4.47096C87.8583 5.31699 87.1812 6.00255 86.3444 6.00255C85.4979 6.00255 84.8125 5.31699 84.8125 4.47096Z" fill="black"/>
<path d="M85.2109 18.1668H87.4637V7.27454H85.2109V18.1668Z" fill="black"/>
<path d="M80.8121 3.23621H83.0156V18.1663H80.8476V16.9294C80.0747 17.8305 78.9872 18.4255 77.4142 18.4255C74.3177 18.4255 72.3281 15.9577 72.3281 12.7272C72.3281 9.5188 74.3177 7.02853 77.4142 7.02853C78.7385 7.02853 79.9698 7.50957 80.8121 8.3679V3.23621ZM80.7635 10.6079C80.1219 9.65811 79.0365 9.0738 77.7601 9.0738C75.8434 9.0738 74.5233 10.6968 74.5233 12.7272C74.5233 14.7576 75.7948 16.4289 77.7601 16.4289C79.0733 16.4289 80.1358 15.6807 80.7635 14.711V10.6079Z" fill="black"/>
<path fill-rule="evenodd" clip-rule="evenodd" d="M68.6602 17.8914C67.8582 18.2568 66.9656 18.441 65.9819 18.4435C62.7396 18.4402 60.3984 16.0515 60.3984 12.7178C60.3984 9.44924 62.743 6.99243 65.8536 6.99243C68.9418 6.99243 71.1734 9.51702 71.1734 12.6276C71.1734 12.8897 71.1637 13.1488 71.1443 13.4088L71.1436 13.4151C71.1422 13.4372 71.1408 13.4596 71.1387 13.4817H62.6693C62.8811 15.15 64.3449 16.4174 66.0268 16.4174C66.7391 16.4174 67.3712 16.2776 67.9264 16.0007C68.4861 15.7065 68.9888 15.3427 69.4355 14.868L69.4385 14.8647L70.7839 16.2984C70.1755 16.992 69.4672 17.523 68.6602 17.8914ZM65.807 8.97583C67.4081 8.97583 68.6539 10.1056 68.8711 11.6206H62.7231C62.8235 10.9838 63.1859 10.3359 63.7178 9.84007C64.272 9.32306 65.0055 8.97583 65.807 8.97583Z" fill="black"/>
<path d="M50.8372 17.0745V22.2063H48.6328V7.27613H50.8008V8.51301C51.5744 7.61231 52.6618 7.01697 54.2345 7.01697C57.3307 7.01697 59.3209 9.48481 59.3209 12.7152C59.3209 15.9236 57.3307 18.4139 54.2345 18.4139C52.9104 18.4139 51.679 17.9333 50.8372 17.0745ZM50.8859 14.8345C51.5274 15.7843 52.6127 16.3687 53.889 16.3687C55.8055 16.3687 57.1261 14.7456 57.1261 12.7152C57.1261 10.6852 55.8541 9.0135 53.889 9.0135C52.5759 9.0135 51.5134 9.76169 50.8859 10.7318V14.8345Z" fill="black"/>
<path d="M40.8118 12.5671L36.97 7.27539H39.6897L42.252 10.8848L44.8146 7.27539H47.4979L43.6395 12.59L47.6767 18.1667H44.9543L42.2232 14.3121L39.4924 18.1667H36.7578L40.8118 12.5671Z" fill="black"/>
<path d="M29.7115 11.777H35.3695V9.63987H29.7115V5.75735H35.859V3.62024H27.25V18.1667H35.9039V16.0296H29.7115V11.777Z" fill="black"/>
</g>
<defs>
<clipPath id="clip0_1_2845">
<rect width="100" height="22.2222" fill="white"/>
</clipPath>
</defs>
</svg>

<svg xmlns="http://www.w3.org/2000/svg" width="278.261" height="64" fill="none" viewBox="0 0 100 23"><g clip-path="url(#a)"><path fill="#000" d="M21.225 14.412C23.168 8.72 20.128 2.53 14.435.588 8.744-1.356 2.554 1.684.61 7.377c-1.943 5.692 1.097 11.882 6.79 13.825 5.693 1.943 11.882-1.097 13.825-6.79Z"/><path fill="#FFC94C" d="M1.696 16.69c1.695-.81 7.464-3.641 8.6-4.308.934-.544 2.325-1.346 2.325-1.346l.59 1.202.9 5.924.688-.397.458-8.275c1.39-.869 2.614-1.714 3.896-2.599.47-.324.948-.654 1.444-.992-.157-.303-.328-.6-.513-.886-.54.26-1.065.509-1.58.754-1.407.667-2.752 1.305-4.2 2.074L6.91 4.101l-.688.397 4.68 3.741.745 1.11.001.002s-1.39.803-2.328 1.34c-1.146.651-6.484 4.232-8.03 5.295.126.24.262.474.406.703Z"/><path fill="#000" d="M97.76 8.47V7.275h2.107v10.891H97.7V16.93c-.773.9-1.861 1.495-3.433 1.495-3.097 0-5.086-2.467-5.086-5.698 0-3.208 1.99-5.698 5.086-5.698 1.375 0 2.651.519 3.494 1.441Zm-.146 2.138c-.641-.95-1.727-1.534-3.002-1.534-1.918 0-3.238 1.623-3.238 3.653 0 2.03 1.272 3.702 3.238 3.702 1.313 0 2.375-.748 3.002-1.718v-4.103ZM84.813 4.471c0-.837.685-1.514 1.531-1.514.82 0 1.514.695 1.514 1.514 0 .846-.677 1.532-1.514 1.532a1.531 1.531 0 0 1-1.531-1.532ZM85.21 18.167h2.254V7.275H85.21v10.892ZM80.812 3.236h2.204v14.93h-2.168V16.93c-.773.902-1.86 1.497-3.434 1.497-3.096 0-5.086-2.468-5.086-5.699 0-3.208 1.99-5.698 5.086-5.698 1.325 0 2.556.48 3.398 1.339V3.236Zm-.049 7.372c-.641-.95-1.727-1.534-3.003-1.534-1.917 0-3.237 1.623-3.237 3.653 0 2.03 1.272 3.702 3.237 3.702 1.313 0 2.376-.748 3.003-1.718v-4.103Z"/><path fill="#000" fill-rule="evenodd" d="M68.66 17.891c-.802.366-1.694.55-2.678.553-3.242-.004-5.584-2.392-5.584-5.726 0-3.269 2.345-5.726 5.456-5.726 3.088 0 5.32 2.525 5.32 5.636 0 .262-.01.52-.03.78v.007l-.005.067h-8.47c.212 1.668 1.676 2.935 3.358 2.935.712 0 1.344-.14 1.9-.416a5.633 5.633 0 0 0 1.508-1.133l.004-.003 1.345 1.433a6.264 6.264 0 0 1-2.124 1.593Zm-2.853-8.915c1.601 0 2.847 1.13 3.064 2.645h-6.148c.1-.637.463-1.285.995-1.78.554-.518 1.287-.865 2.089-.865Z" clip-rule="evenodd"/><path fill="#000" d="M50.837 17.075v5.131h-2.204V7.276H50.8v1.237c.773-.9 1.86-1.496 3.433-1.496 3.097 0 5.087 2.468 5.087 5.698 0 3.209-1.99 5.699-5.087 5.699-1.324 0-2.555-.48-3.397-1.34Zm.049-2.24c.641.95 1.727 1.534 3.003 1.534 1.916 0 3.237-1.623 3.237-3.654 0-2.03-1.272-3.701-3.237-3.701-1.313 0-2.376.748-3.003 1.718v4.103ZM40.812 12.567 36.97 7.275h2.72l2.562 3.61 2.563-3.61h2.683L43.64 12.59l4.037 5.577h-2.723l-2.73-3.855-2.732 3.855h-2.734l4.054-5.6ZM29.712 11.777h5.658V9.64h-5.658V5.757h6.147V3.62H27.25v14.547h8.654V16.03H29.71v-4.253Z"/></g><defs><clipPath id="a"><path fill="#fff" d="M0 0h100v22.222H0z"/></clipPath></defs></svg>
